imgs/logo.svg

<svg width="99" height="14" viewBox="0 0 99 14" fill="none" xmlns="http://www.w3.org/2000/svg">
<path d="M5.592 13.296C4.52 13.296 3.472 13.168 2.448 12.912C1.424 12.64 0.608 12.304 0 11.904L1.248 9.216C1.824 9.584 2.52 9.888 3.336 10.128C4.152 10.352 4.952 10.464 5.736 10.464C7.32 10.464 8.112 10.072 8.112 9.288C8.112 8.92 7.896 8.656 7.464 8.496C7.032 8.336 6.368 8.2 5.472 8.088C4.416 7.928 3.544 7.744 2.856 7.536C2.168 7.328 1.568 6.96 1.056 6.432C0.56 5.904 0.312 5.152 0.312 4.176C0.312 3.36 0.544 2.64 1.008 2.016C1.488 1.376 2.176 0.879999 3.072 0.527999C3.984 0.176 5.056 0 6.288 0C7.2 0 8.104 0.103999 9 0.311998C9.912 0.503999 10.664 0.776 11.256 1.128L10.008 3.792C8.872 3.152 7.632 2.832 6.288 2.832C5.488 2.832 4.888 2.944 4.488 3.168C4.088 3.392 3.888 3.68 3.888 4.032C3.888 4.432 4.104 4.712 4.536 4.872C4.968 5.032 5.656 5.184 6.6 5.328C7.656 5.504 8.52 5.696 9.192 5.904C9.864 6.096 10.448 6.456 10.944 6.984C11.44 7.512 11.688 8.248 11.688 9.192C11.688 9.992 11.448 10.704 10.968 11.328C10.488 11.952 9.784 12.44 8.856 12.792C7.944 13.128 6.856 13.296 5.592 13.296Z" fill="white"/>
<path d="M20.238 13.296C18.862 13.296 17.622 13.016 16.518 12.456C15.43 11.88 14.574 11.088 13.95 10.08C13.342 9.072 13.038 7.928 13.038 6.648C13.038 5.368 13.342 4.224 13.95 3.216C14.574 2.208 15.43 1.424 16.518 0.863998C17.622 0.287999 18.862 0 20.238 0C21.598 0 22.782 0.287999 23.79 0.863998C24.814 1.424 25.558 2.232 26.022 3.288L23.118 4.848C22.446 3.664 21.478 3.072 20.214 3.072C19.238 3.072 18.43 3.392 17.79 4.032C17.15 4.672 16.83 5.544 16.83 6.648C16.83 7.752 17.15 8.624 17.79 9.264C18.43 9.904 19.238 10.224 20.214 10.224C21.494 10.224 22.462 9.632 23.118 8.448L26.022 10.032C25.558 11.056 24.814 11.856 23.79 12.432C22.782 13.008 21.598 13.296 20.238 13.296Z" fill="white"/>
<path d="M31.7537 1.896C32.2017 1.272 32.8017 0.799999 33.5537 0.48C34.3217 0.16 35.2017 0 36.1937 0V3.456C35.7777 3.424 35.4977 3.408 35.3537 3.408C34.2817 3.408 33.4417 3.712 32.8337 4.32C32.2257 4.912 31.9217 5.808 31.9217 7.008V13.104H28.1777V0.191999H31.7537V1.896Z" fill="white"/>
<path d="M51.1616 6.696C51.1616 6.744 51.1376 7.08 51.0896 7.704H41.3216C41.4976 8.504 41.9136 9.136 42.5696 9.6C43.2256 10.064 44.0416 10.296 45.0176 10.296C45.6896 10.296 46.2816 10.2 46.7936 10.008C47.3216 9.8 47.8096 9.48 48.2576 9.048L50.2496 11.208C49.0336 12.6 47.2576 13.296 44.9216 13.296C43.4656 13.296 42.1776 13.016 41.0576 12.456C39.9376 11.88 39.0736 11.088 38.4656 10.08C37.8576 9.072 37.5536 7.928 37.5536 6.648C37.5536 5.384 37.8496 4.248 38.4416 3.24C39.0496 2.216 39.8736 1.424 40.9136 0.863998C41.9696 0.287999 43.1456 0 44.4416 0C45.7056 0 46.8496 0.272 47.8736 0.816C48.8976 1.36 49.6976 2.144 50.2736 3.168C50.8656 4.176 51.1616 5.352 51.1616 6.696ZM44.4656 2.832C43.6176 2.832 42.9056 3.072 42.3296 3.552C41.7536 4.032 41.4016 4.688 41.2736 5.52H47.6336C47.5056 4.704 47.1536 4.056 46.5776 3.576C46.0016 3.08 45.2976 2.832 44.4656 2.832Z" fill="#006AFF"/>
<path d="M66.3022 6.696C66.3022 6.744 66.2782 7.08 66.2302 7.704H56.4622C56.6382 8.504 57.0543 9.136 57.7103 9.6C58.3662 10.064 59.1823 10.296 60.1583 10.296C60.8303 10.296 61.4222 10.2 61.9342 10.008C62.4622 9.8 62.9502 9.48 63.3983 9.048L65.3903 11.208C64.1742 12.6 62.3983 13.296 60.0623 13.296C58.6063 13.296 57.3182 13.016 56.1982 12.456C55.0783 11.88 54.2143 11.088 53.6063 10.08C52.9982 9.072 52.6943 7.928 52.6943 6.648C52.6943 5.384 52.9902 4.248 53.5822 3.24C54.1903 2.216 55.0142 1.424 56.0542 0.863998C57.1102 0.287999 58.2862 0 59.5822 0C60.8462 0 61.9903 0.272 63.0143 0.816C64.0383 1.36 64.8382 2.144 65.4142 3.168C66.0062 4.176 66.3022 5.352 66.3022 6.696ZM59.6063 2.832C58.7583 2.832 58.0462 3.072 57.4702 3.552C56.8942 4.032 56.5422 4.688 56.4142 5.52H62.7743C62.6463 4.704 62.2943 4.056 61.7183 3.576C61.1423 3.08 60.4383 2.832 59.6063 2.832Z" fill="#006AFF"/>
<path d="M76.6429 0C78.2429 0 79.5309 0.48 80.5069 1.44C81.4989 2.4 81.9949 3.824 81.9949 5.712V13.104H78.2509V6.288C78.2509 5.264 78.0269 4.504 77.5789 4.008C77.1309 3.496 76.4829 3.24 75.6349 3.24C74.6909 3.24 73.9389 3.536 73.3789 4.128C72.8189 4.704 72.5389 5.568 72.5389 6.72V13.104H68.7949V0.191999H72.3709V1.704C72.8669 1.16 73.4829 0.743999 74.2189 0.455999C74.9549 0.151999 75.7629 0 76.6429 0Z" fill="white"/>
<path d="M91.6732 13.296C90.3132 13.296 89.0892 13.016 88.0012 12.456C86.9292 11.88 86.0892 11.088 85.4812 10.08C84.8732 9.072 84.5692 7.928 84.5692 6.648C84.5692 5.368 84.8732 4.224 85.4812 3.216C86.0892 2.208 86.9292 1.424 88.0012 0.863998C89.0892 0.287999 90.3132 0 91.6732 0C93.0332 0 94.2493 0.287999 95.3213 0.863998C96.3932 1.424 97.2332 2.208 97.8412 3.216C98.4492 4.224 98.7533 5.368 98.7533 6.648C98.7533 7.928 98.4492 9.072 97.8412 10.08C97.2332 11.088 96.3932 11.88 95.3213 12.456C94.2493 13.016 93.0332 13.296 91.6732 13.296ZM91.6732 10.224C92.6332 10.224 93.4172 9.904 94.0252 9.264C94.6492 8.608 94.9613 7.736 94.9613 6.648C94.9613 5.56 94.6492 4.696 94.0252 4.056C93.4172 3.4 92.6332 3.072 91.6732 3.072C90.7132 3.072 89.9212 3.4 89.2972 4.056C88.6732 4.696 88.3612 5.56 88.3612 6.648C88.3612 7.736 88.6732 8.608 89.2972 9.264C89.9212 9.904 90.7132 10.224 91.6732 10.224Z" fill="white"/>
</svg>

<svg width="99" height="14" fill="none" xmlns="http://www.w3.org/2000/svg"><path d="M5.592 13.296c-1.072 0-2.12-.128-3.144-.384C1.424 12.64.608 12.304 0 11.904l1.248-2.688c.576.368 1.272.672 2.088.912a9.042 9.042 0 0 0 2.4.336c1.584 0 2.376-.392 2.376-1.176 0-.368-.216-.632-.648-.792-.432-.16-1.096-.296-1.992-.408-1.056-.16-1.928-.344-2.616-.552a4.142 4.142 0 0 1-1.8-1.104C.56 5.904.312 5.152.312 4.176c0-.816.232-1.536.696-2.16.48-.64 1.168-1.136 2.064-1.488C3.984.176 5.056 0 6.288 0 7.2 0 8.104.104 9 .312c.912.192 1.664.464 2.256.816l-1.248 2.664a7.45 7.45 0 0 0-3.72-.96c-.8 0-1.4.112-1.8.336-.4.224-.6.512-.6.864 0 .4.216.68.648.84.432.16 1.12.312 2.064.456 1.056.176 1.92.368 2.592.576a3.802 3.802 0 0 1 1.752 1.08c.496.528.744 1.264.744 2.208 0 .8-.24 1.512-.72 2.136-.48.624-1.184 1.112-2.112 1.464-.912.336-2 .504-3.264.504ZM20.238 13.296c-1.376 0-2.616-.28-3.72-.84-1.088-.576-1.944-1.368-2.568-2.376-.608-1.008-.912-2.152-.912-3.432 0-1.28.304-2.424.912-3.432A6.4 6.4 0 0 1 16.518.864C17.622.288 18.862 0 20.238 0c1.36 0 2.544.288 3.552.864a4.98 4.98 0 0 1 2.232 2.424l-2.904 1.56c-.672-1.184-1.64-1.776-2.904-1.776-.976 0-1.784.32-2.424.96-.64.64-.96 1.512-.96 2.616s.32 1.976.96 2.616c.64.64 1.448.96 2.424.96 1.28 0 2.248-.592 2.904-1.776l2.904 1.584c-.464 1.024-1.208 1.824-2.232 2.4-1.008.576-2.192.864-3.552.864ZM31.754 1.896c.448-.624 1.048-1.096 1.8-1.416.768-.32 1.648-.48 2.64-.48v3.456a13.512 13.512 0 0 0-.84-.048c-1.072 0-1.912.304-2.52.912-.608.592-.912 1.488-.912 2.688v6.096h-3.744V.192h3.576v1.704Z" fill="#fff"/><path d="M51.162 6.696c0 .048-.024.384-.072 1.008h-9.768c.176.8.592 1.432 1.248 1.896.656.464 1.472.696 2.448.696.672 0 1.264-.096 1.776-.288a4.46 4.46 0 0 0 1.464-.96l1.992 2.16c-1.216 1.392-2.992 2.088-5.328 2.088-1.456 0-2.744-.28-3.864-.84-1.12-.576-1.984-1.368-2.592-2.376-.608-1.008-.912-2.152-.912-3.432 0-1.264.296-2.4.888-3.408A6.3 6.3 0 0 1 40.914.864C41.97.288 43.146 0 44.442 0c1.264 0 2.408.272 3.432.816a5.857 5.857 0 0 1 2.4 2.352c.592 1.008.888 2.184.888 3.528Zm-6.696-3.864c-.848 0-1.56.24-2.136.72-.576.48-.928 1.136-1.056 1.968h6.36c-.128-.816-.48-1.464-1.056-1.944-.576-.496-1.28-.744-2.112-.744ZM66.302 6.696c0 .048-.024.384-.072 1.008h-9.768c.176.8.592 1.432 1.248 1.896.656.464 1.472.696 2.448.696.672 0 1.264-.096 1.776-.288a4.461 4.461 0 0 0 1.464-.96l1.992 2.16c-1.216 1.392-2.992 2.088-5.328 2.088-1.456 0-2.744-.28-3.864-.84-1.12-.576-1.984-1.368-2.592-2.376-.608-1.008-.912-2.152-.912-3.432 0-1.264.296-2.4.888-3.408A6.302 6.302 0 0 1 56.054.864C57.11.288 58.286 0 59.582 0c1.264 0 2.408.272 3.432.816a5.857 5.857 0 0 1 2.4 2.352c.592 1.008.888 2.184.888 3.528Zm-6.696-3.864c-.848 0-1.56.24-2.136.72-.576.48-.928 1.136-1.056 1.968h6.36c-.128-.816-.48-1.464-1.056-1.944-.576-.496-1.28-.744-2.112-.744Z" fill="#006AFF"/><path d="M76.643 0c1.6 0 2.888.48 3.864 1.44.992.96 1.488 2.384 1.488 4.272v7.392H78.25V6.288c0-1.024-.224-1.784-.672-2.28-.448-.512-1.096-.768-1.944-.768-.944 0-1.696.296-2.256.888-.56.576-.84 1.44-.84 2.592v6.384h-3.744V.192h3.576v1.512A4.847 4.847 0 0 1 74.219.456C74.955.152 75.763 0 76.643 0ZM91.673 13.296c-1.36 0-2.584-.28-3.672-.84a6.439 6.439 0 0 1-2.52-2.376c-.608-1.008-.912-2.152-.912-3.432 0-1.28.304-2.424.912-3.432a6.27 6.27 0 0 1 2.52-2.352C89.09.288 90.313 0 91.673 0c1.36 0 2.576.288 3.648.864a6.27 6.27 0 0 1 2.52 2.352c.608 1.008.912 2.152.912 3.432 0 1.28-.304 2.424-.912 3.432a6.44 6.44 0 0 1-2.52 2.376c-1.072.56-2.288.84-3.648.84Zm0-3.072c.96 0 1.744-.32 2.352-.96.624-.656.936-1.528.936-2.616s-.312-1.952-.936-2.592c-.608-.656-1.392-.984-2.352-.984s-1.752.328-2.376.984c-.624.64-.936 1.504-.936 2.592s.312 1.96.936 2.616c.624.64 1.416.96 2.376.96Z" fill="#fff"/></svg>
